cocktail.svg

<svg height="109pt" viewBox="0 0 128 109" width="128pt" xmlns="http://www.w3.org/2000/svg"><path d="m71.59 6.58c2.63-2.99 6.29-5.27 10.36-5.43 5.79-.46 11.51 2.54 14.82 7.23 3.44 4.63 4.5 10.47 5.08 16.08 3.06-.24 6.63.7 9.17-1.5 2.94-2.43 3.68-6.37 4.14-9.94.25-2.56 4.42-2.59 5.2-.33 2.88 6.01 3.67 13.07 1.81 19.51 1.94.64 5.3 1.06 5.07 3.82.2 2.84-3.67 2.45-4.78 4.43-1.64 2.82-2.34 6.1-4.2 8.81-3.05 4.73-7.91 8-13.21 9.72.01 3.27 1.32 6.74.15 9.89-1.19 2.68-4.94 1.52-6.36 3.92-3.9 5.47-13.67 3.88-15.79-2.48-1.93-.26-4.32-.01-5.64-1.76-1.38-1.46-.93-3.59-.75-5.37 1.41-11.12 2.72-22.26 4.11-33.38-3.11 5.96-8.85 10.59-10.4 17.25.77 5.38 1.02 11.34-2.32 15.97-10.53 13.79-21.03 27.62-31.65 41.34-3.61 4.68-10.76 4.92-15.47 1.83-5.9-3.65-11.93-7.37-16.57-12.61-2.59-2.82-3.92-6.88-3.04-10.67.51-2.6 2.39-4.57 3.92-6.62 9.74-12.62 19.38-25.31 29.03-37.99 3.07-3.92 7.98-6.06 12.86-6.49 2.95-.23 5.5-2.03 7.27-4.32 2.79-3.55 5.68-7.03 8.76-10.34 1.68-1.44 1.12-3.96 2.34-5.67 1.45-2.31 4.48-2.73 6.09-4.9m6.27-1.69c-3.37 1.53-5.01 5.29-8.49 6.65-2.23.82-2.45 3.34-2.36 5.37-4.64 4.47-8.26 9.84-12.7 14.48-3.53 3.68-9.08 2.41-13.25 4.77-1.9.96-3.63 2.28-4.9 4-9.21 12.12-18.44 24.23-27.72 36.3-1.43 1.91-3.07 3.7-4.19 5.82-1.58 3.43-.03 7.43 2.45 9.98 4.56 4.92 10.34 8.47 16.02 11.92 3.64 2.32 9.11 2.03 11.77-1.64 10.32-13.35 20.51-26.8 30.78-40.19 3.07-3.73 3.51-8.85 2.61-13.44-.67-3.87 1.47-7.44 3.7-10.4 2.92-3.83 5.59-7.83 8-12 1.64-.52 3.21-1.24 4.63-2.24-1.96 13.54-3.41 27.14-5.09 40.72-.68 3.47 3.92 2.43 5.97 2.69.7 1.57 1 3.53 2.5 4.59 2.81 1.79 7.31 1.89 9.23-1.24 1.24-2.28 3.98-2.19 6.06-3.2.45-3.59-.49-7.22-.56-10.83 4.98-1.22 9.79-3.69 12.88-7.9 3.58-4.32 3.46-11.69 9.79-13.41-2.38-1.03-4.92-.89-7.31-.01 4.16-6.79 3.46-15.44.11-22.41-.48 4.67-1.88 9.87-6.15 12.46-3.59 2.59-8.69-.2-11.97 3.04-.69-6.37-.99-13.23-4.88-18.63-3.52-5.33-11.01-8.29-16.93-5.25z" fill="#e9e9e9"/><path d="m35.14 47.79c3.78 3.51 7.67 6.91 11.85 9.94-4.38 5.51-8.57 11.17-12.89 16.73-4.3-2.85-8.29-6.16-11.75-9.99 4.34-5.5 8.5-11.14 12.79-16.68z" fill="#e9e9e9"/><path d="m77.86 4.89c5.92-3.04 13.41-.08 16.93 5.25 3.89 5.4 4.19 12.26 4.88 18.63.25 2.25.51 4.5.73 6.76.56 6.06 1.17 12.13 1.7 18.19.08 1.09.15 2.19.22 3.28.07 3.61 1.01 7.24.56 10.83-2.08 1.01-4.82.92-6.06 3.2-1.92 3.13-6.42 3.03-9.23 1.24-1.5-1.06-1.8-3.02-2.5-4.59-2.05-.26-6.65.78-5.97-2.69 1.68-13.58 3.13-27.18 5.09-40.72-1.42 1-2.99 1.72-4.63 2.24-2.41 4.17-5.08 8.17-8 12-2.23 2.96-4.37 6.53-3.7 10.4.9 4.59.46 9.71-2.61 13.44-10.27 13.39-20.46 26.84-30.78 40.19-2.66 3.67-8.13 3.96-11.77 1.64-5.68-3.45-11.46-7-16.02-11.92-2.48-2.55-4.03-6.55-2.45-9.98 1.12-2.12 2.76-3.91 4.19-5.82 9.28-12.07 18.51-24.18 27.72-36.3 1.27-1.72 3-3.04 4.9-4 4.17-2.36 9.72-1.09 13.25-4.77 4.44-4.64 8.06-10.01 12.7-14.48-.09-2.03.13-4.55 2.36-5.37 3.48-1.36 5.12-5.12 8.49-6.65m-1.34 5.43c2.13 1.68 4.28 3.34 6.51 4.9 3.17-1.45 6.14 1.53 5.35 4.73-1.77 14.55-3.47 29.11-5.38 43.64 1.67.32 3.57.26 4.96 1.39.96 1.31 1.27 2.96 1.83 4.47.99.13 1.99.22 2.99.26 1.72-2.12 3.65-4.09 6.38-4.85-1.26-14.27-2.37-28.57-4.03-42.8-.66-5.75-3.36-12.23-9.3-14.2-3.34-1.33-6.74.36-9.31 2.46m-5.55 4.72c.28.82.56 1.64.84 2.45-3.25 3.2-6.44 6.46-9.27 10.04-2.65 3.3-5.17 6.98-9.06 8.93-3.58 1.97-8.02 1.24-11.5 3.44-1.93 1.16-3.21 3.06-4.59 4.78 4.18 3.98 8.46 7.91 13.41 10.92.35.54.71 1.08 1.06 1.62-5.4 7.43-11.02 14.71-16.75 21.89-5.75-2.81-10.64-7.01-15.1-11.53-3.59 4.6-7.1 9.25-10.69 13.84-1.28 1.6-2.72 3.67-1.58 5.76 2.88 4.99 8.06 8.02 12.66 11.23 2.81 1.71 5.76 4.26 9.3 3.32 1.54-.75 2.46-2.28 3.53-3.55 9.74-12.91 19.69-25.67 29.4-38.6 2.66-3.35 1.76-7.74 1.49-11.65-.36-4.53 2.18-8.58 4.78-12.06 3.25-4.25 6.17-8.76 8.62-13.52.75-.05 2.24-.16 2.99-.21.14-1.31.28-2.61.43-3.91-.4-.26-1.21-.79-1.62-1.06-1.67-1.26-3.35-2.52-5.02-3.78-1.11.55-2.22 1.1-3.33 1.65m-35.83 32.75c-4.29 5.54-8.45 11.18-12.79 16.68 3.46 3.83 7.45 7.14 11.75 9.99 4.32-5.56 8.51-11.22 12.89-16.73-4.18-3.03-8.07-6.43-11.85-9.94z" fill="#020302"/><path d="m76.52 10.32c2.57-2.1 5.97-3.79 9.31-2.46 5.94 1.97 8.64 8.45 9.3 14.2 1.66 14.23 2.77 28.53 4.03 42.8-2.73.76-4.66 2.73-6.38 4.85-1-.04-2-.13-2.99-.26-.56-1.51-.87-3.16-1.83-4.47-1.39-1.13-3.29-1.07-4.96-1.39 1.91-14.53 3.61-29.09 5.38-43.64.79-3.2-2.18-6.18-5.35-4.73-2.23-1.56-4.38-3.22-6.51-4.9z" fill="#ffffc3"/><path d="m70.97 15.04c1.11-.55 2.22-1.1 3.33-1.65 1.67 1.26 3.35 2.52 5.02 3.78-4.95 7.06-10.61 13.59-15.55 20.66-4.28 5.95-8.1 12.26-12.97 17.77-4.95-3.01-9.23-6.94-13.41-10.92 1.38-1.72 2.66-3.62 4.59-4.78 3.48-2.2 7.92-1.47 11.5-3.44 3.89-1.95 6.41-5.63 9.06-8.93 2.83-3.58 6.02-6.84 9.27-10.04-.28-.81-.56-1.63-.84-2.45z" fill="#298600"/><path d="m9.32 81.42c3.59-4.59 7.1-9.24 10.69-13.84 4.46 4.52 9.35 8.72 15.1 11.53-4.82 6.5-10.26 12.53-14.71 19.3-4.6-3.21-9.78-6.24-12.66-11.23-1.14-2.09.3-4.16 1.58-5.76z" fill="#298600"/><path d="m117.79 13.27c3.35 6.97 4.05 15.62-.11 22.41 2.39-.88 4.93-1.02 7.31.01-6.33 1.72-6.21 9.09-9.79 13.41-3.09 4.21-7.9 6.68-12.88 7.9-.07-1.09-.14-2.19-.22-3.28 5.26-3.91 9.81-8.88 12.77-14.76 1.92-4.11.41-8.69-.51-12.85-4.57 3.27-8.79 7.09-13.96 9.42-.22-2.26-.48-4.51-.73-6.76 3.28-3.24 8.38-.45 11.97-3.04 4.27-2.59 5.67-7.79 6.15-12.46z" fill="#fe611b"/><path d="m79.32 17.17c.41.27 1.22.8 1.62 1.06-.15 1.3-.29 2.6-.43 3.91-.75.05-2.24.16-2.99.21-2.45 4.76-5.37 9.27-8.62 13.52-2.6 3.48-5.14 7.53-4.78 12.06.27 3.91 1.17 8.3-1.49 11.65-9.71 12.93-19.66 25.69-29.4 38.6-1.07 1.27-1.99 2.8-3.53 3.55-3.54.94-6.49-1.61-9.3-3.32 4.45-6.77 9.89-12.8 14.71-19.3 5.73-7.18 11.35-14.46 16.75-21.89-.35-.54-.71-1.08-1.06-1.62 4.87-5.51 8.69-11.82 12.97-17.77 4.94-7.07 10.6-13.6 15.55-20.66z" fill="#266f07"/><path d="m100.4 35.53c5.17-2.33 9.39-6.15 13.96-9.42.92 4.16 2.43 8.74.51 12.85-2.96 5.88-7.51 10.85-12.77 14.76-.53-6.06-1.14-12.13-1.7-18.19z" fill="#ff7032"/></svg>

<?xml version="1.0" encoding="UTF-8" ?>
<!DOCTYPE svg PUBLIC "-//W3C//DTD SVG 1.1//EN" "http://www.w3.org/Graphics/SVG/1.1/DTD/svg11.dtd">
<svg width="128pt" height="109pt" viewBox="0 0 128 109" version="1.1" xmlns="http://www.w3.org/2000/svg">
<g id="#e9e9e9ff">
<path fill="#e9e9e9" opacity="1.00" d=" M 71.59 6.58 C 74.22 3.59 77.88 1.31 81.95 1.15 C 87.74 0.69 93.46 3.69 96.77 8.38 C 100.21 13.01 101.27 18.85 101.85 24.46 C 104.91 24.22 108.48 25.16 111.02 22.96 C 113.96 20.53 114.70 16.59 115.16 13.02 C 115.41 10.46 119.58 10.43 120.36 12.69 C 123.24 18.70 124.03 25.76 122.17 32.20 C 124.11 32.84 127.47 33.26 127.24 36.02 C 127.44 38.86 123.57 38.47 122.46 40.45 C 120.82 43.27 120.12 46.55 118.26 49.26 C 115.21 53.99 110.35 57.26 105.05 58.98 C 105.06 62.25 106.37 65.72 105.20 68.87 C 104.01 71.55 100.26 70.39 98.84 72.79 C 94.94 78.26 85.17 76.67 83.05 70.31 C 81.12 70.05 78.73 70.30 77.41 68.55 C 76.03 67.09 76.48 64.96 76.66 63.18 C 78.07 52.06 79.38 40.92 80.77 29.80 C 77.66 35.76 71.92 40.39 70.37 47.05 C 71.14 52.43 71.39 58.39 68.05 63.02 C 57.52 76.81 47.02 90.64 36.40 104.36 C 32.79 109.04 25.64 109.28 20.93 106.19 C 15.03 102.54 9.00 98.82 4.36 93.58 C 1.77 90.76 0.44 86.70 1.32 82.91 C 1.83 80.31 3.71 78.34 5.24 76.29 C 14.98 63.67 24.62 50.98 34.27 38.30 C 37.34 34.38 42.25 32.24 47.13 31.81 C 50.08 31.58 52.63 29.78 54.40 27.49 C 57.19 23.94 60.08 20.46 63.16 17.15 C 64.84 15.71 64.28 13.19 65.50 11.48 C 66.95 9.17 69.98 8.75 71.59 6.58 M 77.86 4.89 C 74.49 6.42 72.85 10.18 69.37 11.54 C 67.14 12.36 66.92 14.88 67.01 16.91 C 62.37 21.38 58.75 26.75 54.31 31.39 C 50.78 35.07 45.23 33.80 41.06 36.16 C 39.16 37.12 37.43 38.44 36.16 40.16 C 26.95 52.28 17.72 64.39 8.44 76.46 C 7.01 78.37 5.37 80.16 4.25 82.28 C 2.67 85.71 4.22 89.71 6.70 92.26 C 11.26 97.18 17.04 100.73 22.72 104.18 C 26.36 106.50 31.83 106.21 34.49 102.54 C 44.81 89.19 55.00 75.74 65.27 62.35 C 68.34 58.62 68.78 53.50 67.88 48.91 C 67.21 45.04 69.35 41.47 71.58 38.51 C 74.50 34.68 77.17 30.68 79.58 26.51 C 81.22 25.99 82.79 25.27 84.21 24.27 C 82.25 37.81 80.80 51.41 79.12 64.99 C 78.44 68.46 83.04 67.42 85.09 67.68 C 85.79 69.25 86.09 71.21 87.59 72.27 C 90.40 74.06 94.90 74.16 96.82 71.03 C 98.06 68.75 100.80 68.84 102.88 67.83 C 103.33 64.24 102.39 60.61 102.32 57.00 C 107.30 55.78 112.11 53.31 115.20 49.10 C 118.78 44.78 118.66 37.41 124.99 35.69 C 122.61 34.66 120.07 34.80 117.68 35.68 C 121.84 28.89 121.14 20.24 117.79 13.27 C 117.31 17.94 115.91 23.14 111.64 25.73 C 108.05 28.32 102.95 25.53 99.67 28.77 C 98.98 22.40 98.68 15.54 94.79 10.14 C 91.27 4.81 83.78 1.85 77.86 4.89 Z" />
<path fill="#e9e9e9" opacity="1.00" d=" M 35.14 47.79 C 38.92 51.30 42.81 54.70 46.99 57.73 C 42.61 63.24 38.42 68.90 34.10 74.46 C 29.80 71.61 25.81 68.30 22.35 64.47 C 26.69 58.97 30.85 53.33 35.14 47.79 Z" />
</g>
<g id="#020302ff">
<path fill="#020302" opacity="1.00" d=" M 77.86 4.89 C 83.78 1.85 91.27 4.81 94.79 10.14 C 98.68 15.54 98.98 22.40 99.67 28.77 C 99.92 31.02 100.18 33.27 100.40 35.53 C 100.96 41.59 101.57 47.66 102.10 53.72 C 102.18 54.81 102.25 55.91 102.32 57.00 C 102.39 60.61 103.33 64.24 102.88 67.83 C 100.80 68.84 98.06 68.75 96.82 71.03 C 94.90 74.16 90.40 74.06 87.59 72.27 C 86.09 71.21 85.79 69.25 85.09 67.68 C 83.04 67.42 78.44 68.46 79.12 64.99 C 80.80 51.41 82.25 37.81 84.21 24.27 C 82.79 25.27 81.22 25.99 79.58 26.51 C 77.17 30.68 74.50 34.68 71.58 38.51 C 69.35 41.47 67.21 45.04 67.88 48.91 C 68.78 53.50 68.34 58.62 65.27 62.35 C 55.00 75.74 44.81 89.19 34.49 102.54 C 31.83 106.21 26.36 106.50 22.72 104.18 C 17.04 100.73 11.26 97.18 6.70 92.26 C 4.22 89.71 2.67 85.71 4.25 82.28 C 5.37 80.16 7.01 78.37 8.44 76.46 C 17.72 64.39 26.95 52.28 36.16 40.16 C 37.43 38.44 39.16 37.12 41.06 36.16 C 45.23 33.80 50.78 35.07 54.31 31.39 C 58.75 26.75 62.37 21.38 67.01 16.91 C 66.92 14.88 67.14 12.36 69.37 11.54 C 72.85 10.18 74.49 6.42 77.86 4.89 M 76.52 10.32 C 78.65 12.00 80.80 13.66 83.03 15.22 C 86.20 13.77 89.17 16.75 88.38 19.95 C 86.61 34.50 84.91 49.06 83.00 63.59 C 84.67 63.91 86.57 63.85 87.96 64.98 C 88.92 66.29 89.23 67.94 89.79 69.45 C 90.78 69.58 91.78 69.67 92.78 69.71 C 94.50 67.59 96.43 65.62 99.16 64.86 C 97.90 50.59 96.79 36.29 95.13 22.06 C 94.47 16.31 91.77 9.83 85.83 7.86 C 82.49 6.53 79.09 8.22 76.52 10.32 M 70.97 15.04 C 71.25 15.86 71.53 16.68 71.81 17.49 C 68.56 20.69 65.37 23.95 62.54 27.53 C 59.89 30.83 57.37 34.51 53.48 36.46 C 49.90 38.43 45.46 37.70 41.98 39.90 C 40.05 41.06 38.77 42.96 37.39 44.68 C 41.57 48.66 45.85 52.59 50.80 55.60 C 51.15 56.14 51.51 56.68 51.86 57.22 C 46.46 64.65 40.84 71.93 35.11 79.11 C 29.36 76.30 24.47 72.10 20.01 67.58 C 16.42 72.18 12.91 76.83 9.32 81.42 C 8.04 83.02 6.60 85.09 7.74 87.18 C 10.62 92.17 15.80 95.20 20.40 98.41 C 23.21 100.12 26.16 102.67 29.70 101.73 C 31.24 100.98 32.16 99.45 33.23 98.18 C 42.97 85.27 52.92 72.51 62.63 59.58 C 65.29 56.23 64.39 51.84 64.12 47.93 C 63.76 43.40 66.30 39.35 68.90 35.87 C 72.15 31.62 75.07 27.11 77.52 22.35 C 78.27 22.30 79.76 22.19 80.51 22.14 C 80.65 20.83 80.79 19.53 80.94 18.23 C 80.54 17.97 79.73 17.44 79.32 17.17 C 77.65 15.91 75.97 14.65 74.30 13.39 C 73.19 13.94 72.08 14.49 70.97 15.04 M 35.14 47.79 C 30.85 53.33 26.69 58.97 22.35 64.47 C 25.81 68.30 29.80 71.61 34.10 74.46 C 38.42 68.90 42.61 63.24 46.99 57.73 C 42.81 54.70 38.92 51.30 35.14 47.79 Z" />
</g>
<g id="#ffffc3ff">
<path fill="#ffffc3" opacity="1.00" d=" M 76.52 10.32 C 79.09 8.22 82.49 6.53 85.83 7.86 C 91.77 9.83 94.47 16.31 95.13 22.06 C 96.79 36.29 97.90 50.59 99.16 64.86 C 96.43 65.62 94.50 67.59 92.78 69.71 C 91.78 69.67 90.78 69.58 89.79 69.45 C 89.23 67.94 88.92 66.29 87.96 64.98 C 86.57 63.85 84.67 63.91 83.00 63.59 C 84.91 49.06 86.61 34.50 88.38 19.95 C 89.17 16.75 86.20 13.77 83.03 15.22 C 80.80 13.66 78.65 12.00 76.52 10.32 Z" />
</g>
<g id="#298600ff">
<path fill="#298600" opacity="1.00" d=" M 70.97 15.04 C 72.08 14.49 73.19 13.94 74.30 13.39 C 75.97 14.65 77.65 15.91 79.32 17.17 C 74.37 24.23 68.71 30.76 63.77 37.83 C 59.49 43.78 55.67 50.09 50.80 55.60 C 45.85 52.59 41.57 48.66 37.39 44.68 C 38.77 42.96 40.05 41.06 41.98 39.90 C 45.46 37.70 49.90 38.43 53.48 36.46 C 57.37 34.51 59.89 30.83 62.54 27.53 C 65.37 23.95 68.56 20.69 71.81 17.49 C 71.53 16.68 71.25 15.86 70.97 15.04 Z" />
<path fill="#298600" opacity="1.00" d=" M 9.32 81.42 C 12.91 76.83 16.42 72.18 20.01 67.58 C 24.47 72.10 29.36 76.30 35.11 79.11 C 30.29 85.61 24.85 91.64 20.40 98.41 C 15.80 95.20 10.62 92.17 7.74 87.18 C 6.60 85.09 8.04 83.02 9.32 81.42 Z" />
</g>
<g id="#fe611bff">
<path fill="#fe611b" opacity="1.00" d=" M 117.79 13.27 C 121.14 20.24 121.84 28.89 117.68 35.68 C 120.07 34.80 122.61 34.66 124.99 35.69 C 118.66 37.41 118.78 44.78 115.20 49.10 C 112.11 53.31 107.30 55.78 102.32 57.00 C 102.25 55.91 102.18 54.81 102.10 53.72 C 107.36 49.81 111.91 44.84 114.87 38.96 C 116.79 34.85 115.28 30.27 114.36 26.11 C 109.79 29.38 105.57 33.20 100.40 35.53 C 100.18 33.27 99.92 31.02 99.67 28.77 C 102.95 25.53 108.05 28.32 111.64 25.73 C 115.91 23.14 117.31 17.94 117.79 13.27 Z" />
</g>
<g id="#266f07ff">
<path fill="#266f07" opacity="1.00" d=" M 79.32 17.17 C 79.73 17.44 80.54 17.97 80.94 18.23 C 80.79 19.53 80.65 20.83 80.51 22.14 C 79.76 22.19 78.27 22.30 77.52 22.35 C 75.07 27.11 72.15 31.62 68.90 35.87 C 66.30 39.35 63.76 43.40 64.12 47.93 C 64.39 51.84 65.29 56.23 62.63 59.58 C 52.92 72.51 42.97 85.27 33.23 98.18 C 32.16 99.45 31.24 100.98 29.70 101.73 C 26.16 102.67 23.21 100.12 20.40 98.41 C 24.85 91.64 30.29 85.61 35.11 79.11 C 40.84 71.93 46.46 64.65 51.86 57.22 C 51.51 56.68 51.15 56.14 50.80 55.60 C 55.67 50.09 59.49 43.78 63.77 37.83 C 68.71 30.76 74.37 24.23 79.32 17.17 Z" />
</g>
<g id="#ff7032ff">
<path fill="#ff7032" opacity="1.00" d=" M 100.40 35.53 C 105.57 33.20 109.79 29.38 114.36 26.11 C 115.28 30.27 116.79 34.85 114.87 38.96 C 111.91 44.84 107.36 49.81 102.10 53.72 C 101.57 47.66 100.96 41.59 100.40 35.53 Z" />
</g>
</svg>
